X:1
T:Spanish Chant
T:Spanish Chant
T:Attributed to Henry Rowley Bishop (1786-1856)
T:Public Domain Courtesy of the Cyber Hymnal™
C:Attributed to Henry Rowley Bishop (1786-1856)
Z:Public Domain
Z:Courtesy of the Cyber Hymnal™
%%score ( 1 2 ) ( 3 4 )
L:1/8
Q:1/4=112
M:4/4
K:Ab
V:1 treble 
V:2 treble 
V:3 bass 
V:4 bass 
V:1
 [EA]2 [EA]2 [EG]2 [EA]2 | [DF]2 [DA]2 [CE]4 | [Ec]2 [EA]2 [Dd]2 [FB]2 | [EA]2 [DG]2 [CA]4 | %4
 [Ec]2 [Ec]2 [EB]2 [Ec]2 | [Fd]2 c2 [GB]4 | [Ac]2 [Ac]2 B2 [Ac]2 | [Gd]2 [Ac]2 [GB]4 | %8
 [EA]2 [EA]2 [EG]2 [EA]2 | [DF]2 [DA]2 [CE]4 | [Ec]2 [EA]2 [Dd]2 [FB]2 | [EA]2 [DG]2 [CA]4 |] %12
V:2
 x8 | x8 | x8 | x8 | x8 | x2 (EA) x4 | x4 B2 x2 | x8 | x8 | x8 | x8 | x8 |] %12
V:3
 [A,C]2 [A,C]2 [E,B,]2 [D,A,]2 | A,2 A,2 A,4 | A,2 [C,A,]2 [C,B,]2 (F,D) | %3
 [E,C]2 [E,B,]2 [A,,A,]4 | A,4 [G,B,]2 A,2 | ([F,A,][G,B,]) (C=D) [E,E]4 | [A,E]4 [G,E]2 [A,E]2 | %7
 [B,E]2 [A,E]2 [E,E]4 | [A,C]4 [E,B,]2 [C,A,]2 | A,2 A,2 A,4 | A,2 [C,A,]2 [B,,B,]2 (F,D) | %11
 [E,C]2 [E,B,]2 [A,,A,]4 |] %12
V:4
 x8 | (D,E,) (F,G,) A,4 | A,2 x2 D,2 x2 | x8 | A,4 A,2 x2 | x2 A,2 x4 | x8 | x8 | x8 | %9
 (D,E,) (F,G,) A,4 | A,2 x2 D,2 x2 | x8 |] %12

